X:1
T:[ID 2-73a]
T:[ID 2-73a]
T:Bezeichnung standardisiert: Schwabisch Schwabisch
T:Urheber unbekannt Erstbeleg: 1767 (Datum in der schriftlichen Quelle) Datum in der hier transkribierten schriftlichen Quelle: vermutlich um 1800
C:Urheber unbekannt
C:Erstbeleg: 1767 (Datum in der schriftlichen Quelle)
C:Datum in der hier transkribierten schriftlichen Quelle: vermutlich um 1800
%%score 1 2
L:1/8
M:3/8
K:A
V:1 treble nm="Viol. Primo"
V:2 treble nm="Viol. Secondo"
V:1
 a2 e/f/ | edc | Bcd | c/B/c/d/c | a2 e/f/ | edc | Bcd | c2 c :: aga | f2 e/f/ | aga | e2 f/g/ | %12
 agf | edc | BAG | A2 A :| %16
V:2
 !fermata!c2 e/d/ | cBA | GAB | A/G/A/B/A | c2 c/d/ | cBA | GAB | A2 A :: cBc | d2 c/d/ | cBc | %11
 c2 d/e/ | fed | cBA | DCB, | C2 C :| %16

